alura/assets/api/cursos/react-js-testes-automatizados-front-end.svg

<svg width="50" height="50" viewBox="0 0 50 50" fill="none" xmlns="http://www.w3.org/2000/svg">
<path d="M48.62 18.47L49.36 23.67L3.29997 40.43L2.75997 29.54L2.71997 23.3L47.29 7.14996L48.16 11.02L48.62 18.47Z" fill="#E56060"/>
<path d="M46.4401 3.93999L48.6901 7.17999L1.84009 23.91L2.95009 6.73999L5.93009 3.84999L34.9801 3.67999L46.4401 3.93999Z" fill="#FF6B6B"/>
<path d="M33.7001 16.04C34.8201 11.98 34.5301 8.90998 32.7201 7.92998C31.3201 7.09998 29.2301 7.78998 26.7101 9.73998C26.1401 10.16 25.5901 10.72 25.1701 11.14C24.6001 10.57 24.0501 10.16 23.6301 9.73998C21.2501 7.78998 19.0201 7.07998 17.6201 7.92998C15.8101 8.90998 15.5301 12.12 16.6401 16.04C12.5801 17.16 10.0801 18.97 10.0801 20.93C10.0801 23.02 12.6001 24.85 16.6401 25.82C16.5001 26.51 16.2201 27.22 16.2201 27.91C15.6501 30.98 16.2201 33.21 17.6201 33.92C18.0401 34.2 18.4501 34.34 19.0201 34.34C20.2801 34.34 21.8201 33.65 23.6301 32.25C24.2001 31.83 24.7501 31.27 25.1701 30.85C25.7401 31.42 26.2901 31.83 26.7101 32.25C28.3901 33.65 30.0601 34.34 31.3201 34.34C31.8901 34.34 32.3001 34.2 32.7201 33.92C34.1201 33.09 34.6701 30.99 34.1201 27.91C33.9801 27.22 33.8401 26.51 33.7001 25.82C37.7601 24.7 40.2601 22.89 40.2601 20.93C40.2601 18.82 37.7501 17.01 33.7001 16.04ZM27.1201 10.03C28.8001 8.76998 30.1901 8.07998 31.3101 8.07998C31.7301 8.07998 32.1401 8.21998 32.4301 8.35998C33.9701 9.18998 34.1101 12.14 33.1201 15.91C31.7201 15.63 30.1901 15.34 28.5101 15.22C27.5301 13.82 26.5601 12.7 25.5801 11.58C26.1501 11 26.5701 10.44 27.1201 10.03ZM29.7801 23.58C29.2101 24.41 28.6601 25.39 28.1001 26.1C27.1201 26.24 26.1501 26.24 25.0301 26.24C24.0501 26.24 22.9401 26.24 21.9601 26.1C21.3901 25.27 20.8401 24.42 20.2801 23.58C19.7201 22.74 19.3001 21.77 18.8801 20.92C19.3001 20.09 19.7101 19.11 20.2801 18.26C20.8501 17.43 21.4001 16.45 21.9601 15.74C22.9401 15.6 23.9101 15.6 25.0301 15.6C26.1501 15.6 27.1201 15.6 28.1001 15.74C28.6701 16.57 29.2201 17.42 29.7801 18.26C30.3501 19.09 30.7601 20.07 31.1801 20.92C30.7601 21.77 30.3501 22.74 29.7801 23.58ZM31.5901 21.63C32.1601 22.89 32.7101 24.15 32.9901 25.41C31.7301 25.69 30.4701 25.98 28.9301 26.1C29.3501 25.41 29.9101 24.7 30.3301 23.87C30.7601 23.17 31.1801 22.32 31.5901 21.63ZM25.1701 30.02C24.3401 29.04 23.3601 28.07 22.5101 26.81C23.3401 26.81 24.1901 26.95 25.1701 26.95C26.1501 26.95 26.9801 26.95 27.8301 26.81C26.9801 27.91 26.0001 29.04 25.1701 30.02ZM21.3901 26.1C19.9901 25.96 18.5901 25.68 17.3301 25.41C17.7501 24.15 18.1601 22.89 18.7301 21.63C19.1501 22.32 19.5601 23.17 19.9901 23.86C20.4201 24.7 20.8401 25.4 21.3901 26.1ZM18.7501 20.23C18.1801 18.97 17.6301 17.57 17.3501 16.45C18.6101 16.17 19.8701 15.88 21.4101 15.76C20.9901 16.45 20.4301 17.16 20.0101 17.99C19.5801 18.82 19.1601 19.53 18.7501 20.23ZM25.1701 11.84C26.0001 12.82 26.9801 13.79 27.8301 15.05C26.9801 15.07 26.1501 14.92 25.1701 14.92C24.1901 14.92 23.3601 14.92 22.5101 15.06C23.3601 13.93 24.3401 12.81 25.1701 11.84ZM30.3501 17.99C29.9301 17.3 29.5201 16.45 28.9501 15.76C30.3501 15.9 31.7501 16.18 33.0101 16.45C32.5901 17.71 32.1801 18.97 31.6101 20.23C31.1801 19.53 30.7601 18.68 30.3501 17.99ZM17.9001 8.33998C19.0201 7.64998 20.9701 8.33998 23.2001 10.02C23.7701 10.44 24.1801 10.85 24.7401 11.42C23.7601 12.54 22.7901 13.65 21.8101 15.06C20.1301 15.2 18.6001 15.48 17.2001 15.75C16.2301 12.12 16.3701 9.18998 17.9001 8.33998ZM10.6301 20.92C10.6301 19.11 13.1501 17.57 16.7801 16.59C17.2001 17.99 17.7601 19.39 18.4601 20.92C17.7701 22.46 17.2001 23.85 16.7801 25.25C13.1501 24.29 10.6301 22.74 10.6301 20.92ZM23.2201 31.82C20.9901 33.63 19.0301 34.2 17.9201 33.5C16.8001 32.81 16.3801 30.84 16.8001 28.05C16.9401 27.36 17.0801 26.65 17.2201 25.96C18.6201 26.24 20.1501 26.53 21.8301 26.65C22.8101 28.05 23.7801 29.17 24.7601 30.29C24.1901 30.85 23.7701 31.4 23.2201 31.82ZM33.5601 28.05C33.9801 30.85 33.5601 32.8 32.4401 33.5C31.3201 34.19 29.3701 33.5 27.1401 31.82C26.5701 31.4 26.1601 30.99 25.6001 30.42C26.5801 29.3 27.5501 28.19 28.5301 26.78C30.2101 26.64 31.7401 26.36 33.1401 26.09C33.2801 26.66 33.5601 27.36 33.5601 28.05ZM33.5601 25.26C33.1401 23.86 32.5801 22.33 31.8801 20.93C32.5701 19.39 33.1401 18 33.5601 16.6C37.2001 17.58 39.7101 19.12 39.7101 20.93C39.7101 22.74 37.1901 24.29 33.5601 25.26Z" fill="#444444" stroke="#444444" stroke-width="0.5" stroke-miterlimit="10"/>
<path d="M24.75 23.43C26.1087 23.43 27.21 22.3286 27.21 20.97C27.21 19.6114 26.1087 18.51 24.75 18.51C23.3914 18.51 22.29 19.6114 22.29 20.97C22.29 22.3286 23.3914 23.43 24.75 23.43Z" fill="#444444" stroke="#444444" stroke-width="0.5" stroke-miterlimit="10"/>
<path d="M28.4701 35.81C27.8101 35.68 27.1001 35.88 26.8801 36.25L24.3001 40.49L24.1301 40.77L23.5601 41.71L20.7901 46.27C20.5701 46.64 20.9201 47.04 21.5701 47.16C22.2201 47.29 22.9401 47.09 23.1601 46.72L25.9301 42.16L26.5001 41.22L26.6701 40.94L29.2501 36.7C29.4801 36.34 29.1301 35.94 28.4701 35.81Z" fill="#444444"/>
<path d="M19.4901 39.7C19.7401 39.6 19.9201 39.43 20.0401 39.19C20.1601 38.95 20.2101 38.71 20.2101 38.48C20.2101 38.32 20.1701 38.14 20.1001 37.96C20.0301 37.78 19.9301 37.61 19.8001 37.46C19.6801 37.31 19.5301 37.19 19.3501 37.09C19.1801 36.99 18.9801 36.94 18.7701 36.94C18.6701 36.94 18.4701 36.98 18.1701 37.06L12.1601 39.69C11.6201 39.93 11.2901 40.3 11.1801 40.81C11.1501 40.93 11.1401 41.07 11.1401 41.21C11.1401 41.23 11.1401 41.25 11.1401 41.27C11.1501 41.55 11.2301 41.83 11.3701 42.1C11.5301 42.4 11.7801 42.62 12.1301 42.77L12.2001 42.8L18.2201 45.43C18.5501 45.51 18.7501 45.55 18.8201 45.55C19.2501 45.55 19.5901 45.39 19.8401 45.08C20.0901 44.77 20.2101 44.43 20.2101 44.06C20.2101 43.83 20.1301 43.58 19.9701 43.32C19.8401 43.09 19.6701 42.92 19.4701 42.8C19.4401 42.78 19.4001 42.76 19.3601 42.74L15.8201 41.26L15.7301 41.22L16.7601 40.8L19.4901 39.7Z" fill="#444444"/>
<path d="M30.9701 42.75C30.9301 42.77 30.9001 42.79 30.8601 42.81C30.6601 42.93 30.4901 43.1 30.3601 43.33C30.2001 43.59 30.1201 43.84 30.1201 44.07C30.1201 44.43 30.2401 44.77 30.4801 45.09C30.7201 45.41 31.0601 45.56 31.4901 45.56C31.5401 45.56 31.7501 45.52 32.1101 45.44L38.1001 42.81L38.1701 42.78C38.5201 42.63 38.7701 42.41 38.9401 42.11C39.1001 41.83 39.1801 41.55 39.1901 41.28C39.1901 41.26 39.1901 41.24 39.1901 41.22C39.1901 41.08 39.1801 40.95 39.1501 40.82C39.0401 40.32 38.7001 39.94 38.1501 39.7L32.1601 37.07C31.8601 36.99 31.6601 36.95 31.5601 36.95C31.3301 36.95 31.1301 37 30.9501 37.1C30.7801 37.2 30.6301 37.32 30.5001 37.47C30.3801 37.62 30.2801 37.78 30.2201 37.97C30.1501 38.15 30.1201 38.33 30.1201 38.49C30.1201 39.12 30.3601 39.53 30.8401 39.71L33.5401 40.83L34.5701 41.25L34.4801 41.29L30.9701 42.75Z" fill="#444444"/>
<path d="M41.8201 41.25H44.7701C46.6401 41.25 48.1601 39.97 48.1601 38.38V6.81C48.1601 5.22 46.6401 3.94 44.7701 3.94H5.75011C3.88011 3.94 2.36011 5.22 2.36011 6.81V38.38C2.36011 39.97 3.88011 41.25 5.75011 41.25H8.46011" stroke="#444444" stroke-width="2.5" stroke-miterlimit="10" stroke-linecap="round" stroke-linejoin="round"/>
</svg>

<svg xmlns="http://www.w3.org/2000/svg" id="Camada_3" x="0" y="0" version="1.1" viewBox="0 0 50 50" xml:space="preserve"><style>.st0{fill:#13333f}.st3{stroke:#444;stroke-width:.5;stroke-miterlimit:10;fill:#444}</style><path d="M40.38 39.27h.01-.01zm-.34 2.22z" class="st0"/><path fill="#e56060" d="M48.62 18.47l.74 5.2L3.3 40.43l-.54-10.89-.04-6.24L47.29 7.15l.87 3.87z"/><path fill="#ff6b6b" d="M46.44 3.94l2.25 3.24L1.84 23.91 2.95 6.74l2.98-2.89 29.05-.17z"/><path d="M21.7 34.45v.01-.01zm-.21 5.5v.01-.01zm-11.18-.09v-.01h-.01l.01.01zm18.59.1v-.01.01zm.27-6.35z" class="st0"/><path d="M33.7 16.04c1.12-4.06.83-7.13-.98-8.11-1.4-.83-3.49-.14-6.01 1.81-.57.42-1.12.98-1.54 1.4-.57-.57-1.12-.98-1.54-1.4-2.38-1.95-4.61-2.66-6.01-1.81-1.81.98-2.09 4.19-.98 8.11-4.06 1.12-6.56 2.93-6.56 4.89 0 2.09 2.52 3.92 6.56 4.89-.14.69-.42 1.4-.42 2.09-.57 3.07 0 5.3 1.4 6.01.42.28.83.42 1.4.42 1.26 0 2.8-.69 4.61-2.09.57-.42 1.12-.98 1.54-1.4.57.57 1.12.98 1.54 1.4 1.68 1.4 3.35 2.09 4.61 2.09.57 0 .98-.14 1.4-.42 1.4-.83 1.95-2.93 1.4-6.01-.14-.69-.28-1.4-.42-2.09 4.06-1.12 6.56-2.93 6.56-4.89 0-2.11-2.51-3.92-6.56-4.89zm-6.58-6.01c1.68-1.26 3.07-1.95 4.19-1.95.42 0 .83.14 1.12.28 1.54.83 1.68 3.78.69 7.55-1.4-.28-2.93-.57-4.61-.69-.98-1.4-1.95-2.52-2.93-3.64.57-.58.99-1.14 1.54-1.55zm2.66 13.55c-.57.83-1.12 1.81-1.68 2.52-.98.14-1.95.14-3.07.14-.98 0-2.09 0-3.07-.14-.57-.83-1.12-1.68-1.68-2.52s-.98-1.81-1.4-2.66c.42-.83.83-1.81 1.4-2.66.57-.83 1.12-1.81 1.68-2.52.98-.14 1.95-.14 3.07-.14 1.12 0 2.09 0 3.07.14.57.83 1.12 1.68 1.68 2.52.57.83.98 1.81 1.4 2.66-.42.85-.83 1.82-1.4 2.66zm1.81-1.95c.57 1.26 1.12 2.52 1.4 3.78-1.26.28-2.52.57-4.06.69.42-.69.98-1.4 1.4-2.23.43-.7.85-1.55 1.26-2.24zm-6.42 8.39c-.83-.98-1.81-1.95-2.66-3.21.83 0 1.68.14 2.66.14s1.81 0 2.66-.14c-.85 1.1-1.83 2.23-2.66 3.21zm-3.78-3.92c-1.4-.14-2.8-.42-4.06-.69.42-1.26.83-2.52 1.4-3.78.42.69.83 1.54 1.26 2.23.43.84.85 1.54 1.4 2.24zm-2.64-5.87c-.57-1.26-1.12-2.66-1.4-3.78 1.26-.28 2.52-.57 4.06-.69-.42.69-.98 1.4-1.4 2.23-.43.83-.85 1.54-1.26 2.24zm6.42-8.39c.83.98 1.81 1.95 2.66 3.21-.85.02-1.68-.13-2.66-.13s-1.81 0-2.66.14c.85-1.13 1.83-2.25 2.66-3.22zm5.18 6.15c-.42-.69-.83-1.54-1.4-2.23 1.4.14 2.8.42 4.06.69-.42 1.26-.83 2.52-1.4 3.78-.43-.7-.85-1.55-1.26-2.24zM17.9 8.34c1.12-.69 3.07 0 5.3 1.68.57.42.98.83 1.54 1.4-.98 1.12-1.95 2.23-2.93 3.64-1.68.14-3.21.42-4.61.69-.97-3.63-.83-6.56.7-7.41zm-7.27 12.58c0-1.81 2.52-3.35 6.15-4.33.42 1.4.98 2.8 1.68 4.33-.69 1.54-1.26 2.93-1.68 4.33-3.63-.96-6.15-2.51-6.15-4.33zm12.59 10.9c-2.23 1.81-4.19 2.38-5.3 1.68-1.12-.69-1.54-2.66-1.12-5.45.14-.69.28-1.4.42-2.09 1.4.28 2.93.57 4.61.69.98 1.4 1.95 2.52 2.93 3.64-.57.56-.99 1.11-1.54 1.53zm10.34-3.77c.42 2.8 0 4.75-1.12 5.45-1.12.69-3.07 0-5.3-1.68-.57-.42-.98-.83-1.54-1.4.98-1.12 1.95-2.23 2.93-3.64 1.68-.14 3.21-.42 4.61-.69.14.57.42 1.27.42 1.96zm0-2.79c-.42-1.4-.98-2.93-1.68-4.33.69-1.54 1.26-2.93 1.68-4.33 3.64.98 6.15 2.52 6.15 4.33s-2.52 3.36-6.15 4.33z" class="st3"/><circle cx="24.75" cy="20.97" r="2.46" class="st3"/><path fill="#444" d="M28.47 35.81c-.66-.13-1.37.07-1.59.44l-2.58 4.24-.17.28-.57.94-2.77 4.56c-.22.37.13.77.78.89.65.13 1.37-.07 1.59-.44l2.77-4.56.57-.94.17-.28 2.58-4.24c.23-.36-.12-.76-.78-.89zm-8.98 3.89c.25-.1.43-.27.55-.51.12-.24.17-.48.17-.71a1.707 1.707 0 00-.41-1.02c-.12-.15-.27-.27-.45-.37-.17-.1-.37-.15-.58-.15-.1 0-.3.04-.6.12l-6.01 2.63c-.54.24-.87.61-.98 1.12-.03.12-.04.26-.04.4v.06c.01.28.09.56.23.83.16.3.41.52.76.67l.07.03 6.02 2.63c.33.08.53.12.6.12.43 0 .77-.16 1.02-.47.25-.31.37-.65.37-1.02 0-.23-.08-.48-.24-.74-.13-.23-.3-.4-.5-.52-.03-.02-.07-.04-.11-.06l-3.54-1.48-.09-.04 1.03-.42 2.73-1.1zm11.48 3.05c-.04.02-.07.04-.11.06-.2.12-.37.29-.5.52-.16.26-.24.51-.24.74 0 .36.12.7.36 1.02.24.32.58.47 1.01.47.05 0 .26-.04.62-.12l5.99-2.63.07-.03c.35-.15.6-.37.77-.67.16-.28.24-.56.25-.83v-.06c0-.14-.01-.27-.04-.4-.11-.5-.45-.88-1-1.12l-5.99-2.63c-.3-.08-.5-.12-.6-.12-.23 0-.43.05-.61.15-.17.1-.32.22-.45.37-.12.15-.22.31-.28.5-.07.18-.1.36-.1.52 0 .63.24 1.04.72 1.22l2.7 1.12 1.03.42-.09.04-3.51 1.46z"/><path fill="none" stroke="#444" stroke-linecap="round" stroke-linejoin="round" stroke-miterlimit="10" stroke-width="2.5" d="M41.82 41.25h2.95c1.87 0 3.39-1.28 3.39-2.87V6.81c0-1.59-1.52-2.87-3.39-2.87H5.75c-1.87 0-3.39 1.28-3.39 2.87v31.57c0 1.59 1.52 2.87 3.39 2.87h2.71"/></svg>
